assets/Stopwatch/Flat/stopwatch_flat.svg

<svg width="32" height="32" viewBox="0 0 32 32" fill="none" xmlns="http://www.w3.org/2000/svg">
<path d="M18.015 6L16.015 5L14.015 6V9H18.015V6ZM10.645 11.19L8.195 13.64C7.695 14.14 6.895 14.14 6.405 13.64L5.375 12.61C4.875 12.11 4.875 11.31 5.375 10.82L7.825 8.37C8.325 7.87 9.125 7.87 9.615 8.37L10.655 9.41C11.145 9.89 11.145 10.7 10.645 11.19ZM23.825 13.64L21.375 11.19C20.875 10.7 20.875 9.88999 21.375 9.39999L22.415 8.35999C22.905 7.85999 23.705 7.85999 24.205 8.35999L26.655 10.81C27.155 11.3 27.155 12.1 26.655 12.6L25.615 13.64C25.125 14.14 24.325 14.14 23.825 13.64Z" fill="#D3D3D3"/>
<path d="M13.275 6H18.745C19.445 6 20.015 5.43 20.005 4.73V3.27C20.005 2.57 19.435 2 18.735 2H13.275C12.575 2 12.015 2.57 12.005 3.27V4.73C12.005 5.43 12.575 6 13.275 6ZM27.015 19C27.015 25.0751 22.0901 30 16.015 30C9.93988 30 5.01501 25.0751 5.01501 19C5.01501 12.9249 9.93988 8 16.015 8C22.0901 8 27.015 12.9249 27.015 19Z" fill="#636363"/>
<path d="M16.015 28C20.9856 28 25.015 23.9706 25.015 19C25.015 14.0294 20.9856 10 16.015 10C11.0445 10 7.01501 14.0294 7.01501 19C7.01501 23.9706 11.0445 28 16.015 28Z" fill="white"/>
<path d="M19.545 14.0499L20.255 13.3399C20.645 12.9499 21.275 12.9499 21.665 13.3399C22.055 13.7299 22.055 14.3599 21.665 14.7499L20.955 15.4599C20.565 15.8499 19.935 15.8499 19.545 15.4599C19.155 15.0799 19.155 14.4399 19.545 14.0499Z" fill="#9B9B9B"/>
<path d="M15.015 13V12C15.015 11.45 15.465 11 16.015 11C16.565 11 17.015 11.45 17.015 12V13C17.015 13.55 16.565 14 16.015 14C15.455 14 15.015 13.55 15.015 13ZM15.015 26V25C15.015 24.45 15.465 24 16.015 24C16.565 24 17.015 24.45 17.015 25V26C17.015 26.55 16.565 27 16.015 27C15.455 27 15.015 26.55 15.015 26ZM23.015 18H22.015C21.455 18 21.015 18.45 21.015 19C21.015 19.55 21.465 20 22.015 20H23.015C23.565 20 24.015 19.55 24.015 19C24.015 18.45 23.565 18 23.015 18ZM9.01501 18H10.015C10.565 18 11.015 18.45 11.015 19C11.015 19.55 10.565 20 10.015 20H9.01501C8.46501 20 8.01501 19.55 8.01501 19C8.01501 18.45 8.45501 18 9.01501 18ZM21.675 23.2501L20.965 22.5401C20.565 22.1501 19.935 22.1501 19.555 22.5401C19.165 22.9301 19.165 23.5601 19.555 23.9501L20.265 24.6601C20.655 25.0501 21.285 25.0501 21.675 24.6601C22.065 24.2701 22.065 23.6401 21.675 23.2501ZM11.765 13.35L12.475 14.06C12.865 14.45 12.865 15.08 12.475 15.47C12.085 15.86 11.455 15.86 11.065 15.47L10.355 14.76C9.965 14.37 9.965 13.74 10.355 13.35C10.745 12.95 11.375 12.95 11.765 13.35ZM11.065 22.53L10.355 23.24C9.965 23.64 9.965 24.27 10.355 24.65C10.745 25.04 11.375 25.04 11.765 24.65L12.475 23.94C12.865 23.55 12.865 22.92 12.475 22.53C12.085 22.14 11.455 22.14 11.065 22.53Z" fill="#D3D3D3"/>
<path d="M15.305 19.7101C14.915 19.3201 14.915 18.6901 15.305 18.3001L20.255 13.3501C20.645 12.9601 21.275 12.9601 21.665 13.3501C22.055 13.7401 22.055 14.3701 21.665 14.7601L16.715 19.7101C16.325 20.1001 15.695 20.1001 15.305 19.7101Z" fill="#F8312F"/>
</svg>

<svg xmlns="http://www.w3.org/2000/svg" width="32" height="32" fill="none"><path fill="#D3D3D3" d="m18.015 6-2-1-2 1v3h4V6Zm-7.37 5.19-2.45 2.45c-.5.5-1.3.5-1.79 0l-1.03-1.03c-.5-.5-.5-1.3 0-1.79l2.45-2.45c.5-.5 1.3-.5 1.79 0l1.04 1.04c.49.48.49 1.29-.01 1.78Zm13.18 2.45-2.45-2.45c-.5-.49-.5-1.3 0-1.79l1.04-1.04c.49-.5 1.29-.5 1.79 0l2.45 2.45c.5.49.5 1.29 0 1.79l-1.04 1.04c-.49.5-1.29.5-1.79 0Z"/><path fill="#636363" d="M13.275 6h5.47c.7 0 1.27-.57 1.26-1.27V3.27c0-.7-.57-1.27-1.27-1.27h-5.46c-.7 0-1.26.57-1.27 1.27v1.46c0 .7.57 1.27 1.27 1.27Zm13.74 13c0 6.075-4.925 11-11 11s-11-4.925-11-11 4.925-11 11-11 11 4.925 11 11Z"/><path fill="#fff" d="M16.015 28a9 9 0 1 0 0-18 9 9 0 0 0 0 18Z"/><path fill="#9B9B9B" d="m19.545 14.05.71-.71a.996.996 0 1 1 1.41 1.41l-.71.71a.996.996 0 1 1-1.41-1.41Z"/><path fill="#D3D3D3" d="M15.015 13v-1c0-.55.45-1 1-1s1 .45 1 1v1c0 .55-.45 1-1 1-.56 0-1-.45-1-1Zm0 13v-1c0-.55.45-1 1-1s1 .45 1 1v1c0 .55-.45 1-1 1-.56 0-1-.45-1-1Zm8-8h-1c-.56 0-1 .45-1 1s.45 1 1 1h1c.55 0 1-.45 1-1s-.45-1-1-1Zm-14 0h1c.55 0 1 .45 1 1s-.45 1-1 1h-1c-.55 0-1-.45-1-1s.44-1 1-1Zm12.66 5.25-.71-.71a.996.996 0 1 0-1.41 1.41l.71.71a.996.996 0 1 0 1.41-1.41Zm-9.91-9.9.71.71a.996.996 0 1 1-1.41 1.41l-.71-.71a.996.996 0 0 1 0-1.41c.39-.4 1.02-.4 1.41 0Zm-.7 9.18-.71.71a.996.996 0 1 0 1.41 1.41l.71-.71a.996.996 0 1 0-1.41-1.41Z"/><path fill="#F8312F" d="M15.305 19.71a.996.996 0 0 1 0-1.41l4.95-4.95a.996.996 0 1 1 1.41 1.41l-4.95 4.95a.996.996 0 0 1-1.41 0Z"/></svg>
